assets/img/braze_icons/horizontal-bar-chart-02.svg

<svg fill="none" height="24" viewBox="0 0 24 24" width="24" xmlns="http://www.w3.org/2000/svg"><path d="m20.1382 1.51695c.2286.01868.4984.06274.7698.20104.3763.19175.6823.49771.874.87403.1383.27143.1824.54116.2011.76976.017.20809.0169.45379.0169.70609v.86405c0 .2523.0001.49822-.0169.70631-.0187.2286-.0628.49833-.2011.76976-.1917.37632-.4977.68228-.874.87403-.2714.1383-.5412.18236-.7698.20104-.2081.01701-.4539.01698-.7063.01695l-15.4319-.00001v1.50001h9.4319c.2524-.00003.4982-.00006.7063.01695.2286.01868.4984.06274.7698.20104.3763.19175.6823.49771.874.874.1383.2715.1824.5412.2011.7698.017.2081.0169.4539.0169.7063v.8638c0 .2524.0001.4982-.0169.7063-.0187.2286-.0628.4984-.2011.7698-.1917.3763-.4977.6823-.874.874-.2714.1383-.5412.1824-.7698.2011-.2081.017-.4539.0169-.7063.0169h-9.4319v1.5h5.4319c.25237 0 .49818 0 .7063.017.2286.0186.4984.0627.7698.201.3763.1918.6823.4977.874.874.1383.2715.1824.5412.2011.7698.017.2081.0169.4539.0169.7063v.8638c0 .2524.0001.4982-.0169.7064-.0187.2285-.0628.4983-.2011.7697-.1917.3763-.4977.6823-.874.874-.2714.1383-.5412.1824-.7698.2011-.2081.017-.45385.017-.70619.0169h-6.43201c-.55228 0-1-.4477-1-1v-19c0-.55228.44772-1 1-1h16.4319c.2524-.00003.4982-.00006.7063.01695z" fill="#801ed7"/></svg>

<svg width="24" height="24" viewBox="0 0 24 24" fill="none" xmlns="http://www.w3.org/2000/svg">
<path d="M20.1382 1.51695C20.3668 1.53563 20.6366 1.57969 20.908 1.71799C21.2843 1.90974 21.5903 2.2157 21.782 2.59202C21.9203 2.86345 21.9644 3.13318 21.9831 3.36178C22.0001 3.56987 22 3.81557 22 4.06787V4.93192C22 5.18422 22.0001 5.43014 21.9831 5.63823C21.9644 5.86683 21.9203 6.13656 21.782 6.40799C21.5903 6.78431 21.2843 7.09027 20.908 7.28202C20.6366 7.42032 20.3668 7.46438 20.1382 7.48306C19.9301 7.50007 19.6843 7.50004 19.4319 7.50001L4 7.5V9.00001L13.4319 9.00001C13.6843 8.99998 13.9301 8.99995 14.1382 9.01696C14.3668 9.03564 14.6366 9.0797 14.908 9.218C15.2843 9.40975 15.5903 9.71571 15.782 10.092C15.9203 10.3635 15.9644 10.6332 15.9831 10.8618C16.0001 11.0699 16 11.3157 16 11.5681V12.4319C16 12.6843 16.0001 12.9301 15.9831 13.1382C15.9644 13.3668 15.9203 13.6366 15.782 13.908C15.5903 14.2843 15.2843 14.5903 14.908 14.782C14.6366 14.9203 14.3668 14.9644 14.1382 14.9831C13.9301 15.0001 13.6843 15 13.4319 15L4 15V16.5L9.4319 16.5C9.68427 16.5 9.93008 16.5 10.1382 16.517C10.3668 16.5356 10.6366 16.5797 10.908 16.718C11.2843 16.9098 11.5903 17.2157 11.782 17.592C11.9203 17.8635 11.9644 18.1332 11.9831 18.3618C12.0001 18.5699 12 18.8157 12 19.0681V19.9319C12 20.1843 12.0001 20.4301 11.9831 20.6383C11.9644 20.8668 11.9203 21.1366 11.782 21.408C11.5903 21.7843 11.2843 22.0903 10.908 22.282C10.6366 22.4203 10.3668 22.4644 10.1382 22.4831C9.9301 22.5001 9.68435 22.5001 9.43201 22.5L3 22.5C2.44772 22.5 2 22.0523 2 21.5V2.5C2 1.94772 2.44772 1.5 3 1.5L19.4319 1.5C19.6843 1.49997 19.9301 1.49994 20.1382 1.51695Z" fill="#801ED7"/>
</svg>
